images/62878.svg

<?xml version="1.0" encoding="UTF-8"?>
<svg xmlns="http://www.w3.org/2000/svg" xmlns:xlink="http://www.w3.org/1999/xlink" width="300pt" height="300pt" viewBox="0 0 300 300" version="1.1">
<defs>
<g>
<symbol overflow="visible" id="glyph0-0">
<path style="stroke:none;" d="M 0.59375 2.125 L 0.59375 -8.46875 L 6.59375 -8.46875 L 6.59375 2.125 Z M 1.265625 1.453125 L 5.9375 1.453125 L 5.9375 -7.78125 L 1.265625 -7.78125 Z M 1.265625 1.453125 "/>
</symbol>
<symbol overflow="visible" id="glyph0-1">
<path style="stroke:none;" d="M 1.171875 -8.75 L 2.765625 -8.75 L 6.65625 -1.4375 L 6.65625 -8.75 L 7.796875 -8.75 L 7.796875 0 L 6.203125 0 L 2.328125 -7.3125 L 2.328125 0 L 1.171875 0 Z M 1.171875 -8.75 "/>
</symbol>
<symbol overflow="visible" id="glyph0-2">
<path style="stroke:none;" d="M 1.171875 -8.75 L 2.359375 -8.75 L 2.359375 -5.15625 L 6.65625 -5.15625 L 6.65625 -8.75 L 7.84375 -8.75 L 7.84375 0 L 6.65625 0 L 6.65625 -4.171875 L 2.359375 -4.171875 L 2.359375 0 L 1.171875 0 Z M 1.171875 -8.75 "/>
</symbol>
<symbol overflow="visible" id="glyph0-3">
<path style="stroke:none;" d="M 1.171875 -8.75 L 6.203125 -8.75 L 6.203125 -7.75 L 2.359375 -7.75 L 2.359375 -5.171875 L 5.828125 -5.171875 L 5.828125 -4.171875 L 2.359375 -4.171875 L 2.359375 0 L 1.171875 0 Z M 1.171875 -8.75 "/>
</symbol>
<symbol overflow="visible" id="glyph0-4">
<path style="stroke:none;" d="M 4.734375 -7.953125 C 3.867188 -7.953125 3.179688 -7.628906 2.671875 -6.984375 C 2.171875 -6.347656 1.921875 -5.472656 1.921875 -4.359375 C 1.921875 -3.265625 2.171875 -2.394531 2.671875 -1.75 C 3.179688 -1.113281 3.867188 -0.796875 4.734375 -0.796875 C 5.585938 -0.796875 6.265625 -1.113281 6.765625 -1.75 C 7.273438 -2.394531 7.53125 -3.265625 7.53125 -4.359375 C 7.53125 -5.472656 7.273438 -6.347656 6.765625 -6.984375 C 6.265625 -7.628906 5.585938 -7.953125 4.734375 -7.953125 Z M 4.734375 -8.90625 C 5.953125 -8.90625 6.925781 -8.492188 7.65625 -7.671875 C 8.394531 -6.847656 8.765625 -5.742188 8.765625 -4.359375 C 8.765625 -2.984375 8.394531 -1.882812 7.65625 -1.0625 C 6.925781 -0.238281 5.953125 0.171875 4.734375 0.171875 C 3.503906 0.171875 2.519531 -0.238281 1.78125 -1.0625 C 1.039062 -1.882812 0.671875 -2.984375 0.671875 -4.359375 C 0.671875 -5.742188 1.039062 -6.847656 1.78125 -7.671875 C 2.519531 -8.492188 3.503906 -8.90625 4.734375 -8.90625 Z M 4.734375 -8.90625 "/>
</symbol>
<symbol overflow="visible" id="glyph0-5">
<path style="stroke:none;" d="M 7.734375 -8.078125 L 7.734375 -6.828125 C 7.328125 -7.203125 6.898438 -7.476562 6.453125 -7.65625 C 6.003906 -7.84375 5.523438 -7.9375 5.015625 -7.9375 C 4.015625 -7.9375 3.25 -7.628906 2.71875 -7.015625 C 2.1875 -6.398438 1.921875 -5.515625 1.921875 -4.359375 C 1.921875 -3.210938 2.1875 -2.332031 2.71875 -1.71875 C 3.25 -1.101562 4.015625 -0.796875 5.015625 -0.796875 C 5.523438 -0.796875 6.003906 -0.890625 6.453125 -1.078125 C 6.898438 -1.265625 7.328125 -1.539062 7.734375 -1.90625 L 7.734375 -0.671875 C 7.316406 -0.390625 6.875 -0.175781 6.40625 -0.03125 C 5.945312 0.101562 5.460938 0.171875 4.953125 0.171875 C 3.617188 0.171875 2.570312 -0.234375 1.8125 -1.046875 C 1.050781 -1.859375 0.671875 -2.960938 0.671875 -4.359375 C 0.671875 -5.765625 1.050781 -6.875 1.8125 -7.6875 C 2.570312 -8.5 3.617188 -8.90625 4.953125 -8.90625 C 5.472656 -8.90625 5.960938 -8.832031 6.421875 -8.6875 C 6.890625 -8.550781 7.328125 -8.347656 7.734375 -8.078125 Z M 7.734375 -8.078125 "/>
</symbol>
<symbol overflow="visible" id="glyph0-6">
<path style="stroke:none;" d="M 1.125 -9.125 L 2.203125 -9.125 L 2.203125 0 L 1.125 0 Z M 1.125 -9.125 "/>
</symbol>
</g>
</defs>
<g id="surface47633">
<rect x="0" y="0" width="300" height="300" style="fill:rgb(100%,100%,100%);fill-opacity:1;stroke:none;"/>
<path style="fill:none;stroke-width:1.2;stroke-linecap:butt;stroke-linejoin:miter;stroke:rgb(0%,0%,0%);stroke-opacity:1;stroke-miterlimit:10;" d="M 246.070312 175.121094 L 264.75 197.753906 "/>
<path style="fill:none;stroke-width:1.2;stroke-linecap:butt;stroke-linejoin:miter;stroke:rgb(0%,0%,0%);stroke-opacity:1;stroke-miterlimit:10;" d="M 217.128906 179.984375 L 246.070312 175.121094 "/>
<path style="fill:none;stroke-width:1.2;stroke-linecap:butt;stroke-linejoin:miter;stroke:rgb(0%,0%,0%);stroke-opacity:1;stroke-miterlimit:10;" d="M 264.75 197.753906 L 259.621094 211.5 "/>
<path style="fill:none;stroke-width:1.2;stroke-linecap:butt;stroke-linejoin:miter;stroke:rgb(0%,0%,100%);stroke-opacity:1;stroke-miterlimit:10;" d="M 259.621094 211.5 L 254.492188 225.246094 "/>
<path style="fill:none;stroke-width:1.2;stroke-linecap:butt;stroke-linejoin:miter;stroke:rgb(0%,0%,100%);stroke-opacity:1;stroke-miterlimit:10;" d="M 254.492188 225.246094 L 240.019531 227.679688 "/>
<path style="fill:none;stroke-width:1.2;stroke-linecap:butt;stroke-linejoin:miter;stroke:rgb(0%,0%,0%);stroke-opacity:1;stroke-miterlimit:10;" d="M 240.019531 227.679688 L 225.550781 230.109375 "/>
<path style=" stroke:none;fill-rule:nonzero;fill:rgb(100%,100%,100%);fill-opacity:1;" d="M 245.492188 218.246094 L 263.492188 218.246094 L 263.492188 232.246094 L 245.492188 232.246094 Z M 245.492188 218.246094 "/>
<g style="fill:rgb(0%,0%,100%);fill-opacity:1;">
  <use xlink:href="#glyph0-1" x="245.492188" y="229.384766"/>
  <use xlink:href="#glyph0-2" x="254.46875" y="229.384766"/>
</g>
<path style="fill:none;stroke-width:1.2;stroke-linecap:butt;stroke-linejoin:miter;stroke:rgb(0%,0%,0%);stroke-opacity:1;stroke-miterlimit:10;" d="M 225.550781 230.109375 L 206.871094 207.476562 "/>
<path style="fill:none;stroke-width:1.2;stroke-linecap:butt;stroke-linejoin:miter;stroke:rgb(0%,0%,0%);stroke-opacity:1;stroke-miterlimit:10;" d="M 206.871094 207.476562 L 217.128906 179.984375 "/>
<path style=" stroke:none;fill-rule:nonzero;fill:rgb(0%,0%,0%);fill-opacity:1;" d="M 206.871094 207.476562 L 177.070312 207.230469 L 178.789062 217.445312 Z M 206.871094 207.476562 "/>
<path style="fill:none;stroke-width:1;stroke-linecap:butt;stroke-linejoin:miter;stroke:rgb(0%,0%,0%);stroke-opacity:1;stroke-miterlimit:10;" d="M 217.128906 179.984375 L 217.128906 179.984375 M 215.652344 177.371094 L 214.847656 178.035156 M 214.171875 174.761719 L 212.5625 176.089844 M 212.695312 172.152344 L 210.28125 174.144531 M 211.214844 169.542969 L 208 172.195312 M 209.738281 166.929688 L 205.714844 170.25 M 208.257812 164.320312 L 203.433594 168.304688 M 206.78125 161.710938 L 201.148438 166.355469 M 205.300781 159.101562 L 198.867188 164.410156 M 203.824219 156.488281 L 196.585938 162.464844 M 202.441406 154.054688 L 194.453125 160.648438 "/>
<path style="fill:none;stroke-width:1.2;stroke-linecap:butt;stroke-linejoin:miter;stroke:rgb(0%,0%,0%);stroke-opacity:1;stroke-miterlimit:10;" d="M 198.449219 157.351562 L 208.707031 129.855469 "/>
<path style="fill:none;stroke-width:1.2;stroke-linecap:butt;stroke-linejoin:miter;stroke:rgb(0%,0%,0%);stroke-opacity:1;stroke-miterlimit:10;" d="M 193.003906 152.1875 L 201.214844 130.191406 "/>
<path style="fill:none;stroke-width:1.2;stroke-linecap:butt;stroke-linejoin:miter;stroke:rgb(0%,0%,0%);stroke-opacity:1;stroke-miterlimit:10;" d="M 169.507812 162.210938 L 198.449219 157.351562 "/>
<path style="fill:none;stroke-width:1.2;stroke-linecap:butt;stroke-linejoin:miter;stroke:rgb(0%,0%,0%);stroke-opacity:1;stroke-miterlimit:10;" d="M 208.707031 129.855469 L 190.027344 107.226562 "/>
<path style="fill:none;stroke-width:1.2;stroke-linecap:butt;stroke-linejoin:miter;stroke:rgb(0%,0%,0%);stroke-opacity:1;stroke-miterlimit:10;" d="M 190.027344 107.226562 L 161.089844 112.085938 "/>
<path style="fill:none;stroke-width:1.2;stroke-linecap:butt;stroke-linejoin:miter;stroke:rgb(0%,0%,0%);stroke-opacity:1;stroke-miterlimit:10;" d="M 188.277344 114.519531 L 165.125 118.410156 "/>
<path style="fill:none;stroke-width:1.2;stroke-linecap:butt;stroke-linejoin:miter;stroke:rgb(0%,0%,0%);stroke-opacity:1;stroke-miterlimit:10;" d="M 161.089844 112.085938 L 150.828125 139.582031 "/>
<path style="fill:none;stroke-width:1.2;stroke-linecap:butt;stroke-linejoin:miter;stroke:rgb(0%,0%,0%);stroke-opacity:1;stroke-miterlimit:10;" d="M 161.089844 112.085938 L 151.746094 100.769531 "/>
<path style="fill:none;stroke-width:1.2;stroke-linecap:butt;stroke-linejoin:miter;stroke:rgb(20%,80%,80%);stroke-opacity:1;stroke-miterlimit:10;" d="M 151.746094 100.769531 L 142.40625 89.453125 "/>
<path style="fill:none;stroke-width:1.2;stroke-linecap:butt;stroke-linejoin:miter;stroke:rgb(0%,0%,0%);stroke-opacity:1;stroke-miterlimit:10;" d="M 150.828125 139.582031 L 169.507812 162.210938 "/>
<path style="fill:none;stroke-width:1.2;stroke-linecap:butt;stroke-linejoin:miter;stroke:rgb(0%,0%,0%);stroke-opacity:1;stroke-miterlimit:10;" d="M 158.023438 137.449219 L 172.964844 155.554688 "/>
<path style=" stroke:none;fill-rule:nonzero;fill:rgb(100%,100%,100%);fill-opacity:1;" d="M 135.40625 82.453125 L 142.40625 82.453125 L 142.40625 96.453125 L 135.40625 96.453125 Z M 135.40625 82.453125 "/>
<g style="fill:rgb(20%,80%,80%);fill-opacity:1;">
  <use xlink:href="#glyph0-3" x="135.40625" y="93.591797"/>
</g>
<path style="fill:none;stroke-width:1.2;stroke-linecap:butt;stroke-linejoin:miter;stroke:rgb(0%,0%,0%);stroke-opacity:1;stroke-miterlimit:10;" d="M 177.929688 212.339844 L 168.589844 201.023438 "/>
<path style="fill:none;stroke-width:1.2;stroke-linecap:butt;stroke-linejoin:miter;stroke:rgb(100%,0%,0%);stroke-opacity:1;stroke-miterlimit:10;" d="M 168.589844 201.023438 L 159.25 189.707031 "/>
<path style="fill:none;stroke-width:1.2;stroke-linecap:butt;stroke-linejoin:miter;stroke:rgb(100%,0%,0%);stroke-opacity:1;stroke-miterlimit:10;" d="M 159.25 189.707031 L 144.777344 192.136719 "/>
<path style="fill:none;stroke-width:1.2;stroke-linecap:butt;stroke-linejoin:miter;stroke:rgb(0%,0%,0%);stroke-opacity:1;stroke-miterlimit:10;" d="M 144.777344 192.136719 L 130.308594 194.566406 "/>
<path style=" stroke:none;fill-rule:nonzero;fill:rgb(100%,100%,100%);fill-opacity:1;" d="M 154.25 182.707031 L 164.25 182.707031 L 164.25 196.707031 L 154.25 196.707031 Z M 154.25 182.707031 "/>
<g style="fill:rgb(100%,0%,0%);fill-opacity:1;">
  <use xlink:href="#glyph0-4" x="154.25" y="193.845703"/>
</g>
<path style="fill:none;stroke-width:1.2;stroke-linecap:butt;stroke-linejoin:miter;stroke:rgb(0%,0%,0%);stroke-opacity:1;stroke-miterlimit:10;" d="M 130.308594 194.566406 L 111.628906 171.9375 "/>
<path style="fill:none;stroke-width:1.2;stroke-linecap:butt;stroke-linejoin:miter;stroke:rgb(0%,0%,0%);stroke-opacity:1;stroke-miterlimit:10;" d="M 123.117188 196.699219 L 108.171875 178.59375 "/>
<path style="fill:none;stroke-width:1.2;stroke-linecap:butt;stroke-linejoin:miter;stroke:rgb(0%,0%,0%);stroke-opacity:1;stroke-miterlimit:10;" d="M 120.050781 222.0625 L 130.308594 194.566406 "/>
<path style="fill:none;stroke-width:1.2;stroke-linecap:butt;stroke-linejoin:miter;stroke:rgb(0%,0%,0%);stroke-opacity:1;stroke-miterlimit:10;" d="M 111.628906 171.9375 L 82.6875 176.796875 "/>
<path style="fill:none;stroke-width:1.2;stroke-linecap:butt;stroke-linejoin:miter;stroke:rgb(0%,0%,0%);stroke-opacity:1;stroke-miterlimit:10;" d="M 82.6875 176.796875 L 72.429688 204.292969 "/>
<path style="fill:none;stroke-width:1.2;stroke-linecap:butt;stroke-linejoin:miter;stroke:rgb(0%,0%,0%);stroke-opacity:1;stroke-miterlimit:10;" d="M 75.191406 177.132812 L 66.984375 199.128906 "/>
<path style="fill:none;stroke-width:1.2;stroke-linecap:butt;stroke-linejoin:miter;stroke:rgb(100%,0%,0%);stroke-opacity:1;stroke-miterlimit:10;" d="M 59.710938 158.542969 L 71.199219 167.671875 "/>
<path style="fill:none;stroke-width:1.2;stroke-linecap:butt;stroke-linejoin:miter;stroke:rgb(0%,0%,0%);stroke-opacity:1;stroke-miterlimit:10;" d="M 71.199219 167.671875 L 82.6875 176.796875 "/>
<path style="fill:none;stroke-width:1.2;stroke-linecap:butt;stroke-linejoin:miter;stroke:rgb(0%,0%,0%);stroke-opacity:1;stroke-miterlimit:10;" d="M 72.429688 204.292969 L 91.109375 226.921875 "/>
<path style="fill:none;stroke-width:1.2;stroke-linecap:butt;stroke-linejoin:miter;stroke:rgb(0%,0%,0%);stroke-opacity:1;stroke-miterlimit:10;" d="M 72.429688 204.292969 L 57.769531 203.660156 "/>
<path style="fill:none;stroke-width:1.2;stroke-linecap:butt;stroke-linejoin:miter;stroke:rgb(100%,0%,0%);stroke-opacity:1;stroke-miterlimit:10;" d="M 57.769531 203.660156 L 43.109375 203.03125 "/>
<path style="fill:none;stroke-width:1.2;stroke-linecap:butt;stroke-linejoin:miter;stroke:rgb(0%,0%,0%);stroke-opacity:1;stroke-miterlimit:10;" d="M 91.109375 226.921875 L 120.050781 222.0625 "/>
<path style="fill:none;stroke-width:1.2;stroke-linecap:butt;stroke-linejoin:miter;stroke:rgb(0%,0%,0%);stroke-opacity:1;stroke-miterlimit:10;" d="M 92.859375 219.628906 L 116.011719 215.738281 "/>
<path style="fill:none;stroke-width:1.2;stroke-linecap:butt;stroke-linejoin:miter;stroke:rgb(100%,0%,0%);stroke-opacity:1;stroke-miterlimit:10;" d="M 43.109375 203.03125 L 39.179688 188.894531 "/>
<path style="fill:none;stroke-width:1.2;stroke-linecap:butt;stroke-linejoin:miter;stroke:rgb(0%,0%,0%);stroke-opacity:1;stroke-miterlimit:10;" d="M 39.179688 188.894531 L 35.25 174.757812 "/>
<path style=" stroke:none;fill-rule:nonzero;fill:rgb(100%,100%,100%);fill-opacity:1;" d="M 38.109375 196.03125 L 48.109375 196.03125 L 48.109375 210.03125 L 38.109375 210.03125 Z M 38.109375 196.03125 "/>
<g style="fill:rgb(100%,0%,0%);fill-opacity:1;">
  <use xlink:href="#glyph0-4" x="38.109375" y="207.169922"/>
</g>
<path style="fill:none;stroke-width:1.2;stroke-linecap:butt;stroke-linejoin:miter;stroke:rgb(0%,0%,0%);stroke-opacity:1;stroke-miterlimit:10;" d="M 35.25 174.757812 L 47.480469 166.652344 "/>
<path style="fill:none;stroke-width:1.2;stroke-linecap:butt;stroke-linejoin:miter;stroke:rgb(100%,0%,0%);stroke-opacity:1;stroke-miterlimit:10;" d="M 47.480469 166.652344 L 59.710938 158.542969 "/>
<path style=" stroke:none;fill-rule:nonzero;fill:rgb(100%,100%,100%);fill-opacity:1;" d="M 54.710938 151.542969 L 64.710938 151.542969 L 64.710938 165.542969 L 54.710938 165.542969 Z M 54.710938 151.542969 "/>
<g style="fill:rgb(100%,0%,0%);fill-opacity:1;">
  <use xlink:href="#glyph0-4" x="54.710938" y="162.681641"/>
</g>
<path style=" stroke:none;fill-rule:nonzero;fill:rgb(100%,100%,100%);fill-opacity:1;" d="M 144.972656 62.890625 L 165.972656 62.890625 L 165.972656 76.890625 L 144.972656 76.890625 Z M 144.972656 62.890625 "/>
<g style="fill:rgb(0%,80%,0%);fill-opacity:1;">
  <use xlink:href="#glyph0-5" x="144.972656" y="74.029297"/>
  <use xlink:href="#glyph0-6" x="153.351562" y="74.029297"/>
  <use xlink:href="#glyph0-2" x="156.685547" y="74.029297"/>
</g>
</g>
</svg>

<svg xmlns="http://www.w3.org/2000/svg" xmlns:xlink="http://www.w3.org/1999/xlink" width="300pt" height="300pt" viewBox="0 0 300 300"><defs><symbol overflow="visible"><path d="M.594 2.125V-8.47h6V2.126zm.672-.672h4.671V-7.78h-4.67zm0 0"/></symbol><symbol overflow="visible" id="a"><path d="M1.172-8.75h1.594l3.89 7.313V-8.75h1.14V0H6.204L2.328-7.313V0H1.172zm0 0"/></symbol><symbol overflow="visible" id="b"><path d="M1.172-8.75H2.36v3.594h4.296V-8.75h1.188V0H6.656v-4.172H2.36V0H1.17zm0 0"/></symbol><symbol overflow="visible" id="c"><path d="M1.172-8.75h5.03v1H2.36v2.578h3.468v1h-3.47V0H1.173zm0 0"/></symbol><symbol overflow="visible" id="d"><path d="M4.734-7.953c-.867 0-1.554.324-2.062.97-.5.635-.75 1.51-.75 2.624 0 1.094.25 1.965.75 2.61.508.637 1.195.953 2.062.953.852 0 1.532-.316 2.032-.953.507-.645.765-1.516.765-2.61 0-1.113-.257-1.988-.764-2.624-.5-.645-1.18-.97-2.032-.97zm0-.953c1.22 0 2.192.414 2.922 1.234.74.824 1.11 1.93 1.11 3.313 0 1.376-.37 2.477-1.11 3.298C6.926-.24 5.953.17 4.734.17c-1.23 0-2.214-.41-2.953-1.234C1.04-1.882.673-2.984.673-4.36c0-1.382.367-2.488 1.11-3.312.738-.82 1.722-1.234 2.952-1.234zm0 0"/></symbol><symbol overflow="visible" id="e"><path d="M7.734-8.078v1.25c-.406-.375-.836-.65-1.28-.828-.45-.188-.93-.282-1.438-.282-1 0-1.766.31-2.297.922-.533.618-.798 1.5-.798 2.657 0 1.15.266 2.028.797 2.64.53.618 1.296.923 2.296.923.507 0 .988-.094 1.437-.28.445-.19.875-.462 1.28-.83V-.67c-.417.28-.858.496-1.327.64-.46.134-.945.204-1.453.204-1.336 0-2.383-.406-3.14-1.22-.762-.81-1.14-1.913-1.14-3.31 0-1.408.378-2.517 1.14-3.33.757-.812 1.804-1.218 3.14-1.218.52 0 1.008.074 1.47.22.468.135.905.338 1.31.608zm0 0"/></symbol><symbol overflow="visible" id="f"><path d="M1.125-9.125h1.078V0H1.125zm0 0"/></symbol></defs><g><path fill="#fff" d="M0 0h300v300H0z"/><path d="M246.07 175.12l18.68 22.634M217.13 179.984l28.94-4.863M264.75 197.754l-5.13 13.746" stroke-width="1.2" stroke="#000" stroke-miterlimit="10" fill="none"/><path d="M259.62 211.5l-5.128 13.746M254.492 225.246l-14.472 2.434" stroke-width="1.2" stroke="#00f" stroke-miterlimit="10" fill="none"/><path d="M240.02 227.68l-14.47 2.43" stroke-width="1.2" stroke="#000" stroke-miterlimit="10" fill="none"/><path d="M245.492 218.246h18v14h-18zm0 0" fill="#fff"/><g fill="#00f"><use xlink:href="#a" x="245.492" y="229.385"/><use xlink:href="#b" x="254.469" y="229.385"/></g><path d="M225.55 230.11l-18.68-22.633M206.87 207.477l10.26-27.493" stroke-width="1.2" stroke="#000" stroke-miterlimit="10" fill="none"/><path d="M206.87 207.477l-29.8-.247 1.72 10.215zm0 0"/><path d="M217.13 179.984m-1.478-2.613l-.804.665m-.676-3.273l-1.61 1.328m.133-3.938l-2.414 1.993m.935-4.602L208 172.195m1.738-5.265l-4.023 3.32m2.543-5.93l-4.824 3.985m3.347-6.594l-5.632 4.645m4.153-7.253l-6.433 5.308m4.957-7.922l-7.238 5.977m5.855-8.41l-7.987 6.593" stroke="#000" stroke-miterlimit="10" fill="none"/><path d="M198.45 157.352l10.257-27.497M193.004 152.188l8.21-21.997M169.508 162.21l28.94-4.858M208.707 129.855l-18.68-22.628M190.027 107.227l-28.937 4.86M188.277 114.52l-23.152 3.89M161.09 112.086l-10.262 27.496M161.09 112.086l-9.344-11.316" stroke-width="1.2" stroke="#000" stroke-miterlimit="10" fill="none"/><path d="M151.746 100.77l-9.34-11.317" stroke-width="1.2" stroke="#3cc" stroke-miterlimit="10" fill="none"/><path d="M150.828 139.582l18.68 22.63M158.023 137.45l14.942 18.105" stroke-width="1.2" stroke="#000" stroke-miterlimit="10" fill="none"/><path d="M135.406 82.453h7v14h-7zm0 0" fill="#fff"/><use xlink:href="#c" x="135.406" y="93.592" fill="#3cc"/><path d="M177.93 212.34l-9.34-11.317" stroke-width="1.2" stroke="#000" stroke-miterlimit="10" fill="none"/><path d="M168.59 201.023l-9.34-11.316M159.25 189.707l-14.473 2.43" stroke-width="1.2" stroke="#f00" stroke-miterlimit="10" fill="none"/><path d="M144.777 192.137l-14.468 2.43" stroke-width="1.2" stroke="#000" stroke-miterlimit="10" fill="none"/><path d="M154.25 182.707h10v14h-10zm0 0" fill="#fff"/><use xlink:href="#d" x="154.25" y="193.846" fill="#f00"/><path d="M130.31 194.566l-18.68-22.63M123.117 196.7l-14.945-18.106M120.05 222.063l10.26-27.497M111.63 171.938l-28.942 4.86M82.688 176.797L72.43 204.293M75.19 177.133l-8.206 21.996" stroke-width="1.2" stroke="#000" stroke-miterlimit="10" fill="none"/><path d="M59.71 158.543l11.49 9.13" stroke-width="1.2" stroke="#f00" stroke-miterlimit="10" fill="none"/><path d="M71.2 167.672l11.487 9.125M72.43 204.293l18.68 22.63M72.43 204.293l-14.66-.633" stroke-width="1.2" stroke="#000" stroke-miterlimit="10" fill="none"/><path d="M57.77 203.66l-14.66-.63" stroke-width="1.2" stroke="#f00" stroke-miterlimit="10" fill="none"/><path d="M91.11 226.922l28.94-4.86M92.86 219.63l23.152-3.892" stroke-width="1.2" stroke="#000" stroke-miterlimit="10" fill="none"/><path d="M43.11 203.03l-3.93-14.135" stroke-width="1.2" stroke="#f00" stroke-miterlimit="10" fill="none"/><path d="M39.18 188.895l-3.93-14.137" stroke-width="1.2" stroke="#000" stroke-miterlimit="10" fill="none"/><path d="M38.11 196.03h10v14h-10zm0 0" fill="#fff"/><use xlink:href="#d" x="38.109" y="207.17" fill="#f00"/><path d="M35.25 174.758l12.23-8.106" stroke-width="1.2" stroke="#000" stroke-miterlimit="10" fill="none"/><path d="M47.48 166.652l12.23-8.11" stroke-width="1.2" stroke="#f00" stroke-miterlimit="10" fill="none"/><path d="M54.71 151.543h10v14h-10zm0 0" fill="#fff"/><use xlink:href="#d" x="54.711" y="162.682" fill="#f00"/><path d="M144.973 62.89h21v14h-21zm0 0" fill="#fff"/><g fill="#0c0"><use xlink:href="#e" x="144.973" y="74.029"/><use xlink:href="#f" x="153.352" y="74.029"/><use xlink:href="#b" x="156.686" y="74.029"/></g></g></svg>
